public/logo.svg

<svg fill="none" height="34" viewBox="0 0 159 34" width="159" xmlns="http://www.w3.org/2000/svg"><g fill="#332b29"><path d="m51.657 31.9479v-11.032l-11.907-18.97859h6.2797l7.6254 12.59599c.4078.7186.6932 1.2681.8155 1.7753h.0816c.1223-.5072.3262-1.0567.7748-1.7753l7.7069-12.59599h6.1981l-11.9885 18.97859v11.032z"/><path d="m73.0756 31.9479v-21.1342h5.1788v21.1342z"/><path d="m95.2914 32.582c-7.4623 0-12.0702-4.0578-12.0702-10.9898 0-7.228 4.6487-11.4125 11.8255-11.4125 7.2993 0 11.6213 3.8464 11.6213 10.6094v1.9443h-18.3904c.2039 3.5928 2.8952 5.8331 7.1769 5.8331 3.1806 0 5.5455-1.2681 6.8095-3.6774l4.078 1.9444c-2.08 3.7196-5.831 5.7485-11.0506 5.7485zm-7.0138-13.2723h13.1714v-.2114c0-3.5083-2.6508-5.4526-6.4431-5.4526-3.9962 0-6.5244 2.1557-6.7283 5.664z"/><path d="m117.041 1.30328v30.64462h-5.179v-30.64462z"/><path d="m132.365 32.582c-6.076 0-10.317-4.565-10.317-11.2012 0-6.6361 4.364-11.2011 10.643-11.2011 3.67 0 6.361 1.268 8.115 3.9309v-12.80732h5.179v30.64462h-4.975v-3.9732c-1.631 2.9165-4.649 4.6073-8.645 4.6073zm-4.893-11.2434c0 4.4804 2.569 7.2279 6.687 7.2279 3.996 0 6.728-2.6207 6.728-6.5517v-1.1412c0-4.1-2.732-6.7207-6.85-6.7207-4.119 0-6.565 2.6629-6.565 7.1857z"/><path d="m152.998 31.9479v-21.1342h5.178v21.1342z"/><path d="m79.1141 5.51388c0 1.99323-1.5551 3.60907-3.4733 3.60907-1.9183 0-3.4733-1.61584-3.4733-3.60907 0-1.99324 1.555-3.60908 3.4733-3.60908 1.9182 0 3.4733 1.61584 3.4733 3.60908z"/><path d="m159 5.51388c0 1.99323-1.555 3.60907-3.473 3.60907-1.919 0-3.474-1.61584-3.474-3.60907 0-1.99324 1.555-3.60908 3.474-3.60908 1.918 0 3.473 1.61584 3.473 3.60908z"/><path d="m8.20288 13.0947c-.68896-.399-.925-1.283-.52724-1.9742.39776-.6913 1.2788-.9281 1.96776-.529 0 0 3.2925 2.5032 5.9551 2.5032 2.6625 0 5.8539-2.5032 5.8539-2.5032.6889-.3991 1.57-.1623 1.9677.529.3978.6912.1618 1.5751-.5272 1.9742 0 0-5.8539 2.3142-5.8539 5.6865v13.0072c0 .7982-.6449 1.4452-1.4405 1.4452s-1.4405-.647-1.4405-1.4452c0 0 0-7.1571 0-13.0072 0-3.3723-5.95512-5.6865-5.95512-5.6865z"/></g><path d="m18.915 3.74121c0 1.8903-1.5114 3.41539-3.3668 3.41539-1.8555 0-3.3669-1.52509-3.3669-3.41539s1.5114-3.41539 3.3669-3.41539c1.8554 0 3.3668 1.52509 3.3668 3.41539z" fill="#007d98" stroke="#332b29" stroke-width=".651639"/><circle cx="27.3549" cy="8.01691" fill="#ff6656" r="3.41539" stroke="#332b29" stroke-width=".651639"/><circle cx="3.74121" cy="8.01691" fill="#a1fd59" r="3.41539" stroke="#332b29" stroke-width=".651639"/></svg>

<svg width="159" height="34" viewBox="0 0 159 34" fill="none" xmlns="http://www.w3.org/2000/svg">
<path d="M51.657 31.9479V20.9159L39.75 1.93731H46.0297L53.6551 14.5333C54.0629 15.2519 54.3483 15.8014 54.4706 16.3086H54.5522C54.6745 15.8014 54.8784 15.2519 55.327 14.5333L63.0339 1.93731H69.232L57.2435 20.9159V31.9479H51.657Z" fill="#332B29"/>
<path d="M73.0756 31.9479V10.8137H78.2544V31.9479H73.0756Z" fill="#332B29"/>
<path d="M95.2914 32.582C87.8291 32.582 83.2212 28.5242 83.2212 21.5922C83.2212 14.3642 87.8699 10.1797 95.0467 10.1797C102.346 10.1797 106.668 14.0261 106.668 20.7891V22.7334H88.2776C88.4815 26.3262 91.1728 28.5665 95.4545 28.5665C98.6351 28.5665 101 27.2984 102.264 24.8891L106.342 26.8335C104.262 30.5531 100.511 32.582 95.2914 32.582ZM88.2776 19.3097H101.449V19.0983C101.449 15.59 98.7982 13.6457 95.0059 13.6457C91.0097 13.6457 88.4815 15.8014 88.2776 19.3097Z" fill="#332B29"/>
<path d="M117.041 1.30328V31.9479H111.862V1.30328H117.041Z" fill="#332B29"/>
<path d="M132.365 32.582C126.289 32.582 122.048 28.017 122.048 21.3808C122.048 14.7447 126.412 10.1797 132.691 10.1797C136.361 10.1797 139.052 11.4477 140.806 14.1106V1.30328H145.985V31.9479H141.01V27.9747C139.379 30.8912 136.361 32.582 132.365 32.582ZM127.472 21.3386C127.472 25.819 130.041 28.5665 134.159 28.5665C138.155 28.5665 140.887 25.9458 140.887 22.0148V20.8736C140.887 16.7736 138.155 14.1529 134.037 14.1529C129.918 14.1529 127.472 16.8158 127.472 21.3386Z" fill="#332B29"/>
<path d="M152.998 31.9479V10.8137H158.176V31.9479H152.998Z" fill="#332B29"/>
<path d="M79.1141 5.51388C79.1141 7.50711 77.559 9.12295 75.6408 9.12295C73.7225 9.12295 72.1675 7.50711 72.1675 5.51388C72.1675 3.52064 73.7225 1.9048 75.6408 1.9048C77.559 1.9048 79.1141 3.52064 79.1141 5.51388Z" fill="#332B29"/>
<path d="M159 5.51388C159 7.50711 157.445 9.12295 155.527 9.12295C153.608 9.12295 152.053 7.50711 152.053 5.51388C152.053 3.52064 153.608 1.9048 155.527 1.9048C157.445 1.9048 159 3.52064 159 5.51388Z" fill="#332B29"/>
<path d="M8.20288 13.0947C7.51392 12.6957 7.27788 11.8117 7.67564 11.1205C8.0734 10.4292 8.95444 10.1924 9.6434 10.5915C9.6434 10.5915 12.9359 13.0947 15.5985 13.0947C18.261 13.0947 21.4524 10.5915 21.4524 10.5915C22.1413 10.1924 23.0224 10.4292 23.4201 11.1205C23.8179 11.8117 23.5819 12.6956 22.8929 13.0947C22.8929 13.0947 17.039 15.4089 17.039 18.7812C17.039 24.0877 17.039 31.7884 17.039 31.7884C17.039 32.5866 16.3941 33.2336 15.5985 33.2336C14.8029 33.2336 14.158 32.5866 14.158 31.7884C14.158 31.7884 14.158 24.6313 14.158 18.7812C14.158 15.4089 8.20288 13.0947 8.20288 13.0947Z" fill="#332B29"/>
<path d="M18.915 3.74121C18.915 5.63151 17.4036 7.1566 15.5482 7.1566C13.6927 7.1566 12.1813 5.63151 12.1813 3.74121C12.1813 1.85091 13.6927 0.32582 15.5482 0.32582C17.4036 0.32582 18.915 1.85091 18.915 3.74121Z" fill="#007D98" stroke="#332B29" stroke-width="0.651639"/>
<circle cx="27.3549" cy="8.01691" r="3.41539" fill="#FF6656" stroke="#332B29" stroke-width="0.651639"/>
<circle cx="3.74121" cy="8.01691" r="3.41539" fill="#A1FD59" stroke="#332B29" stroke-width="0.651639"/>
</svg>
